svgs/sharp-light/hamsa.svg

<svg xmlns="http://www.w3.org/2000/svg" viewBox="0 0 512 512"><!--! Font Awesome Pro 6.6.0 by @fontawesome - https://fontawesome.com License - https://fontawesome.com/license (Commercial License) Copyright 2024 Fonticons, Inc. --><path d="M192 0l16 0 96 0 16 0 0 16 0 16 80 0 16 0 0 16 0 208 80 0 16 0 0 16 0 64 0 6.6-4.7 4.7L403.9 450.7C364.7 490 311.5 512 256 512s-108.7-22-147.9-61.3L4.7 347.3 0 342.6 0 336l0-64 0-16 16 0 80 0L96 48l0-16 16 0 80 0 0-16 0-16zM320 208l0 16-16 0-16 0 0-16 0-160 0-16-64 0 0 16 0 160 0 16-16 0-16 0 0-16 0-144-64 0 0 208c0 8.8-7.2 16-16 16l-80 0 0 41.4 98.7 98.7C164 461.3 209 480 256 480s92-18.7 125.3-51.9L480 329.4l0-41.4-80 0c-8.8 0-16-7.2-16-16l0-208-64 0 0 144zM200.6 372c17.6 15.6 37.7 28 55.4 28s37.8-12.3 55.4-28c8.1-7.2 15-14.5 19.9-20c-4.9-5.6-11.8-12.8-19.9-20c-17.6-15.6-37.7-28-55.4-28s-37.8 12.3-55.4 28c-8.1 7.2-15 14.5-19.9 20c4.9 5.6 11.8 12.8 19.9 20zm164.2-29.6L352 352c12.8 9.6 12.8 9.6 12.8 9.6s0 0 0 0s0 0 0 0c0 0 0 0 0 .1l-.1 .2-.5 .6c-.4 .5-1 1.3-1.8 2.3c-1.5 1.9-3.7 4.6-6.5 7.8c-5.6 6.4-13.5 14.9-23.2 23.4c-18.4 16.4-46.3 36-76.6 36s-58.2-19.7-76.6-36c-9.6-8.6-17.6-17.1-23.2-23.4c-2.8-3.2-5-5.9-6.5-7.8c-.8-1-1.4-1.7-1.8-2.3l-.5-.6-.1-.2c0 0 0 0 0-.1c0 0 0 0 0 0s0 0 0 0L160 352c-12.8-9.6-12.8-9.6-12.8-9.6s0 0 0 0s0 0 0 0c0 0 0 0 0-.1l.1-.2 .5-.6c.4-.5 1-1.3 1.8-2.3c1.5-1.9 3.7-4.6 6.5-7.8c5.6-6.4 13.5-14.9 23.2-23.4c18.4-16.4 46.3-36 76.6-36s58.2 19.7 76.6 36c9.6 8.6 17.6 17.1 23.2 23.4c2.8 3.2 5 5.9 6.5 7.8c.8 1 1.4 1.7 1.8 2.3l.5 .6 .1 .2c0 0 0 0 0 .1c0 0 0 0 0 0s0 0 0 0zM352 352l12.8 9.6L372 352l-7.2-9.6L352 352zm-204.8-9.6L160 352l-12.8 9.6L140 352l7.2-9.6zM256 328a24 24 0 1 1 0 48 24 24 0 1 1 0-48z"/></svg>

<svg xmlns="http://www.w3.org/2000/svg" viewBox="0 0 512 512"><!--! Font Awesome Pro 6.4.0 by @fontawesome - https://fontawesome.com License - https://fontawesome.com/license (Commercial License) Copyright 2023 Fonticons, Inc. --><path d="M192 0h16 96 16V16 32h80 16V48 256h80 16v16 64 6.6l-4.7 4.7L403.9 450.7C364.7 490 311.5 512 256 512s-108.7-22-147.9-61.3L4.7 347.3 0 342.6V336 272 256H16 96V48 32h16 80V16 0zM320 208v16H304 288V208 48 32H224V48 208v16H208 192V208 64H128V272c0 8.8-7.2 16-16 16H32v41.4l98.7 98.7C164 461.3 209 480 256 480s92-18.7 125.3-51.9L480 329.4V288H400c-8.8 0-16-7.2-16-16V64H320V208zM200.6 372c17.6 15.6 37.7 28 55.4 28s37.8-12.3 55.4-28c8.1-7.2 15-14.5 19.9-20c-4.9-5.6-11.8-12.8-19.9-20c-17.6-15.6-37.7-28-55.4-28s-37.8 12.3-55.4 28c-8.1 7.2-15 14.5-19.9 20c4.9 5.6 11.8 12.8 19.9 20zm164.2-29.6s0 0-12.8 9.6c12.8 9.6 12.8 9.6 12.8 9.6l0 0 0 0 0 .1-.1 .2-.5 .6c-.4 .5-1 1.3-1.8 2.3c-1.5 1.9-3.7 4.6-6.5 7.8c-5.6 6.4-13.5 14.9-23.2 23.4c-18.4 16.4-46.3 36-76.6 36s-58.2-19.7-76.6-36c-9.6-8.6-17.6-17.1-23.2-23.4c-2.8-3.2-5-5.9-6.5-7.8c-.8-1-1.4-1.7-1.8-2.3l-.5-.6-.1-.2 0-.1 0 0 0 0s0 0 12.8-9.6c-12.8-9.6-12.8-9.6-12.8-9.6l0 0 0 0 0-.1 .1-.2 .5-.6c.4-.5 1-1.3 1.8-2.3c1.5-1.9 3.7-4.6 6.5-7.8c5.6-6.4 13.5-14.9 23.2-23.4c18.4-16.4 46.3-36 76.6-36s58.2 19.7 76.6 36c9.6 8.6 17.6 17.1 23.2 23.4c2.8 3.2 5 5.9 6.5 7.8c.8 1 1.4 1.7 1.8 2.3l.5 .6 .1 .2 0 .1 0 0 0 0zM352 352l12.8 9.6L372 352l-7.2-9.6L352 352zm-204.8-9.6L160 352l-12.8 9.6L140 352l7.2-9.6zM256 328a24 24 0 1 1 0 48 24 24 0 1 1 0-48z"/></svg>
